brandFactory_export/2.Regular/Videojuegos _2Regular.svg

<?xml version="1.0" encoding="UTF-8"?>
<svg width="24px" height="24px" viewBox="0 0 24 24" version="1.1" xmlns="http://www.w3.org/2000/svg" xmlns:xlink="http://www.w3.org/1999/xlink">
    <title>2.Regular/Videojuegos _2Regular</title>
    <g id="Symbols" stroke="none" stroke-width="1" fill="none" fill-rule="evenodd">
        <g id="2.Regular/Videojuegos-_2Regular" fill="#5CB615" fill-rule="nonzero">
            <path d="M16.712605,7.62016807 C17.0151261,7.62016807 17.2504202,7.69747899 17.4151261,7.85210084 C17.5865546,8.01344538 17.6739496,8.25210084 17.6739496,8.56470588 C17.6739496,8.87394958 17.5865546,9.11260504 17.4151261,9.27394958 C17.2504202,9.42857143 17.0151261,9.50588235 16.712605,9.50588235 C16.410084,9.50588235 16.1747899,9.42857143 16.010084,9.27394958 C15.8386555,9.11260504 15.7546218,8.87731092 15.7546218,8.56470588 C15.7546218,8.25210084 15.8420168,8.01344538 16.010084,7.85210084 C16.1714286,7.69747899 16.4067227,7.62016807 16.712605,7.62016807 L16.712605,7.62016807 Z M14.7697479,9.50252101 C15.0722689,9.50252101 15.307563,9.57983193 15.4722689,9.73781513 C15.6436975,9.89915966 15.7310924,10.1378151 15.7310924,10.4504202 C15.7310924,10.7596639 15.6436975,10.9983193 15.4722689,11.1596639 C15.307563,11.3142857 15.0722689,11.3915966 14.7697479,11.3915966 C14.4672269,11.3915966 14.2319328,11.3142857 14.0672269,11.1596639 C13.8991597,10.9983193 13.8084034,10.7630252 13.8084034,10.4504202 C13.8084034,10.1378151 13.8957983,9.89915966 14.0672269,9.73781513 C14.2319328,9.57983193 14.4672269,9.50252101 14.7697479,9.50252101 Z M16.712605,11.3848739 C17.0151261,11.3848739 17.2504202,11.4621849 17.4151261,11.6168067 C17.5865546,11.7781513 17.6739496,12.0168067 17.6739496,12.3294118 C17.6739496,12.6386555 17.5865546,12.8773109 17.4151261,13.0386555 C17.2504202,13.1932773 17.0151261,13.2705882 16.712605,13.2705882 C16.410084,13.2705882 16.1747899,13.1932773 16.010084,13.0386555 C15.8386555,12.8773109 15.7546218,12.6420168 15.7546218,12.3294118 C15.7546218,12.0168067 15.8420168,11.7781513 16.010084,11.6168067 C16.1714286,11.4621849 16.4067227,11.3848739 16.712605,11.3848739 L16.712605,11.3848739 Z M18.6521008,9.50252101 C18.9546218,9.50252101 19.189916,9.57983193 19.3546218,9.73781513 C19.5260504,9.89915966 19.6134454,10.1378151 19.6134454,10.4504202 C19.6134454,10.7596639 19.5260504,10.9983193 19.3546218,11.1596639 C19.189916,11.3142857 18.9546218,11.3915966 18.6521008,11.3915966 C18.3462185,11.3915966 18.1142857,11.3142857 17.9495798,11.1596639 C17.7815126,10.9983193 17.6941176,10.7630252 17.6941176,10.4504202 C17.6941176,10.1378151 17.7815126,9.89915966 17.9495798,9.73781513 C18.1142857,9.57983193 18.3495798,9.50252101 18.6521008,9.50252101 Z M8.59831933,9.08235294 C9.02857143,9.08235294 9.35798319,9.18655462 9.57983193,9.39831933 C9.81176471,9.62352941 9.92941176,9.95294118 9.92941176,10.389916 C9.92941176,10.8268908 9.81176471,11.1563025 9.57983193,11.3747899 C9.35798319,11.5865546 9.02521008,11.6941176 8.59831933,11.6941176 L8.46386555,11.6941176 L8.46722689,11.7210084 C8.48403361,11.794958 8.49411765,11.8722689 8.49411765,11.9327731 C8.49411765,12.3697479 8.37647059,12.6991597 8.14453782,12.9176471 C7.91932773,13.1294118 7.58991597,13.2336134 7.16302521,13.2336134 C6.73277311,13.2336134 6.4,13.1294118 6.18151261,12.9142857 C5.95294118,12.702521 5.83865546,12.3697479 5.83865546,11.9294118 C5.83865546,11.8890756 5.85210084,11.7848739 5.85882353,11.7411765 C5.80840336,11.7445378 5.77142857,11.7478992 5.65714286,11.7478992 C5.22689076,11.7478992 4.89747899,11.6403361 4.67563025,11.4285714 C4.45042017,11.2168067 4.33277311,10.8806723 4.33277311,10.4403361 C4.33277311,10 4.45042017,9.66722689 4.6789916,9.45210084 C4.89747899,9.24369748 5.22689076,9.13277311 5.65714286,9.13277311 C5.69411765,9.13277311 5.79495798,9.1394958 5.83193277,9.14621849 L5.85546218,9.14621849 C5.8487395,9.08571429 5.84201681,9.02521008 5.84201681,8.95462185 C5.84201681,8.51428571 5.95630252,8.18151261 6.19159664,7.96302521 C6.41008403,7.75462185 6.7394958,7.64369748 7.1697479,7.64369748 C7.6,7.64369748 7.92941176,7.7512605 8.1512605,7.96302521 C8.37983193,8.18151261 8.50084034,8.51764706 8.50084034,8.95462185 C8.50084034,8.97478992 8.49747899,9.03865546 8.4907563,9.08235294 C8.50420168,9.08571429 8.54117647,9.08235294 8.59831933,9.08235294 Z M21.902521,17.3243697 C22.0235294,16.9277311 22.1747899,16.0840336 22.1781513,15.7680672 C22.2151261,13.0521008 20.8,9.79495798 20.0403361,8.04369748 C19.9260504,7.77815126 19.8218487,7.54285714 19.7378151,7.34117647 L19.6941176,7.23361345 C19.6470588,7.12268908 19.6033613,7.02184874 19.5697479,6.94117647 L19.5394958,6.87394958 L19.5226891,6.84033613 L19.5159664,6.82689076 L19.4689076,6.7394958 C19.3344538,6.50756303 19.2134454,6.34285714 19.0890756,6.22184874 C18.5579832,5.71764706 17.7478992,5.46218487 16.6789916,5.46218487 C16.2554622,5.46218487 15.8453782,5.51596639 15.4319328,5.62689076 C15.3210084,5.65714286 14.9781513,5.79831933 14.7630252,5.89243697 C14.6420168,5.95966387 14.3798319,6.10756303 14.2756303,6.17815126 C13.5563025,6.66218487 12.7193277,6.91764706 11.8487395,6.91764706 C10.9781513,6.91764706 10.1378151,6.66218487 9.42184874,6.17815126 C9.31092437,6.10420168 9.0487395,5.95630252 8.93109244,5.88907563 C8.73277311,5.80504202 8.37647059,5.65714286 8.26218487,5.62352941 C7.84537815,5.51596639 7.43865546,5.45882353 7.01512605,5.45882353 C5.94621849,5.45882353 5.13613445,5.71764706 4.60840336,6.21848739 C4.48403361,6.3394958 4.35630252,6.50756303 4.22857143,6.73613445 L4.19159664,6.81008403 L4.16134454,6.87058824 L4.12773109,6.94117647 C4.08739496,7.03193277 4.04033613,7.14621849 3.98655462,7.27394958 L3.95966387,7.34117647 C3.87563025,7.54285714 3.77142857,7.78151261 3.65714286,8.04369748 C2.89747899,9.79495798 1.48235294,13.0521008 1.51932773,15.7680672 C1.52268908,16.0840336 1.67058824,16.9310924 1.79495798,17.3243697 C1.97983193,17.9226891 2.4,18.1176471 2.57478992,18.1747899 C2.73277311,18.2285714 3.02521008,18.2789916 3.24033613,18.2991597 C3.38823529,18.2957983 3.89915966,18.1848739 4.1210084,18.0840336 C4.3092437,18 4.49411765,17.8789916 4.68571429,17.7176471 C4.77647059,17.6403361 4.81008403,17.6033613 5.08235294,17.2672269 L5.19663866,17.1260504 C5.26722689,17.0352941 5.33445378,16.9445378 5.40504202,16.8537815 C5.60336134,16.594958 5.82184874,16.302521 6.11428571,16.0235294 C6.97815126,15.2 8.07731092,14.5983193 9.37478992,14.2352941 C10.1747899,14.0134454 11.0084034,13.8991597 11.8453782,13.8991597 C12.6823529,13.8991597 13.5159664,14.0134454 14.3159664,14.2352941 C15.6168067,14.5983193 16.712605,15.2 17.5764706,16.0235294 C17.8689076,16.302521 18.0941176,16.594958 18.2890756,16.8537815 C18.3596639,16.9445378 18.4268908,17.0319328 18.497479,17.1226891 L18.6084034,17.2605042 C18.8806723,17.5966387 18.9176471,17.6336134 19.005042,17.7142857 C19.2436975,17.9193277 19.4521008,18.0235294 19.5865546,18.0806723 C19.7915966,18.1714286 20.3731092,18.2890756 20.5680672,18.2890756 C20.6453782,18.2890756 20.887395,18.2453782 21.1193277,18.1714286 C21.297479,18.1176471 21.7176471,17.9226891 21.902521,17.3243697 Z M21.1058824,6.78655462 C21.7815126,8.40336134 23.7042017,12.3428571 23.6571429,15.7848739 C23.6504202,16.2823529 23.4655462,17.2705882 23.3176471,17.7478992 C23.0252101,18.6991597 22.3428571,19.3109244 21.5932773,19.5563025 C21.287395,19.6537815 20.8739496,19.7478992 20.5747899,19.7478992 C20.1747899,19.7478992 19.3882353,19.589916 18.9848739,19.4084034 C18.7563025,19.307563 18.4201681,19.1327731 18.0436975,18.8134454 C17.8184874,18.6218487 17.7176471,18.487395 17.3478992,18.0302521 C17.0823529,17.707563 16.8504202,17.3546218 16.5478992,17.0655462 C15.8521008,16.4033613 14.9647059,15.9260504 13.912605,15.6336134 C13.2436975,15.4453782 12.5445378,15.3512605 11.8453782,15.3512605 C11.1462185,15.3512605 10.4504202,15.4420168 9.77815126,15.6336134 C8.72605042,15.9260504 7.84201681,16.4 7.14285714,17.0655462 C6.84033613,17.3546218 6.60840336,17.7042017 6.34621849,18.0302521 C5.97310924,18.487395 5.87563025,18.6218487 5.65042017,18.8134454 C5.27394958,19.1327731 4.95462185,19.307563 4.72605042,19.4084034 C4.35294118,19.5764706 3.63697479,19.7512605 3.21344538,19.7512605 C3.17983193,19.7512605 3.14621849,19.7512605 3.11932773,19.7478992 C2.82016807,19.7243697 2.40672269,19.6537815 2.10084034,19.5563025 C1.3512605,19.3109244 0.672268908,18.6991597 0.376470588,17.7478992 C0.228571429,17.2705882 0.043697479,16.2823529 0.0336134454,15.7848739 C-0.0134453782,12.3428571 1.91260504,8.40336134 2.58487395,6.78655462 C2.65546218,6.61848739 2.71596639,6.46722689 2.7697479,6.35294118 C2.81680672,6.2487395 2.83697479,6.21512605 2.85042017,6.18487395 L2.91764706,6.05378151 C3.10252101,5.73109244 3.30756303,5.42857143 3.57647059,5.17647059 C4.38991597,4.4 5.54957983,4.00672269 7.01176471,4.00672269 C7.61680672,4.00672269 8.1512605,4.0907563 8.64537815,4.22184874 C8.93781513,4.29915966 9.58655462,4.58487395 9.59663866,4.59159664 C9.59663866,4.59159664 10.0941176,4.87058824 10.2521008,4.97478992 C10.7327731,5.29747899 11.287395,5.45882353 11.8453782,5.45882353 C12.4,5.45882353 12.9579832,5.29747899 13.4352941,4.97478992 C13.5932773,4.87058824 14.0907563,4.59159664 14.0907563,4.59159664 C14.1042017,4.58487395 14.7529412,4.29915966 15.0453782,4.22184874 C15.5428571,4.08739496 16.0773109,4.00672269 16.6789916,4.00672269 C18.1445378,4.00672269 19.3008403,4.4 20.1176471,5.17647059 C20.3831933,5.42857143 20.5915966,5.73109244 20.7731092,6.05378151 L20.8436975,6.18487395 C20.8571429,6.21512605 20.8773109,6.2487395 20.9243697,6.35294118 C20.9747899,6.46722689 21.0352941,6.61848739 21.1058824,6.78655462 L21.1058824,6.78655462 Z" id="Videojuegos-_2Regular"></path>
        </g>
    </g>
</svg>

<svg width="24" height="24" viewBox="0 0 24 24" xmlns="http://www.w3.org/2000/svg"><path d="M16.713 7.62c.302 0 .537.077.702.232.172.161.259.4.259.713 0 .309-.087.548-.259.709-.165.155-.4.232-.702.232-.303 0-.538-.077-.703-.232-.171-.161-.255-.397-.255-.71 0-.312.087-.55.255-.712.161-.155.397-.232.703-.232zM14.77 9.503c.302 0 .538.077.702.235.172.161.26.4.26.712 0 .31-.088.548-.26.71-.164.154-.4.232-.702.232-.303 0-.538-.078-.703-.232-.168-.162-.259-.397-.259-.71 0-.312.088-.55.26-.712.164-.158.4-.235.702-.235zm1.943 1.882c.302 0 .537.077.702.232.172.161.259.4.259.712 0 .31-.087.548-.259.71-.165.154-.4.232-.702.232-.303 0-.538-.078-.703-.232-.171-.162-.255-.397-.255-.71 0-.312.087-.55.255-.712.161-.155.397-.232.703-.232zm1.94-1.882c.302 0 .537.077.702.235.171.161.258.4.258.712 0 .31-.087.548-.258.71-.165.154-.4.232-.703.232-.306 0-.538-.078-.702-.232-.168-.162-.256-.397-.256-.71 0-.312.088-.55.256-.712.164-.158.4-.235.702-.235zm-10.055-.42c.43 0 .76.104.982.315.232.226.35.555.35.992 0 .437-.118.766-.35.985-.222.212-.555.32-.982.32h-.134l.003.026c.017.074.027.151.027.212 0 .437-.118.766-.35.985-.225.211-.554.316-.981.316-.43 0-.763-.105-.981-.32-.23-.211-.343-.544-.343-.985 0-.04.013-.144.02-.188-.05.004-.088.007-.202.007-.43 0-.76-.108-.981-.32-.226-.211-.343-.547-.343-.988 0-.44.117-.773.346-.988.218-.208.548-.32.978-.32.037 0 .138.007.175.014h.023c-.006-.06-.013-.12-.013-.191 0-.44.114-.773.35-.992.218-.208.547-.32.978-.32.43 0 .76.108.981.32.229.219.35.555.35.992 0 .02-.004.084-.01.127.013.004.05 0 .107 0zm13.305 8.241c.12-.396.272-1.24.275-1.556.037-2.716-1.378-5.973-2.138-7.724-.114-.266-.218-.501-.302-.703l-.044-.107-.124-.293-.03-.067-.017-.034-.007-.013-.047-.088a2.371 2.371 0 00-.38-.517c-.531-.504-1.341-.76-2.41-.76a4.76 4.76 0 00-1.247.165 8.13 8.13 0 00-.669.265 9.333 9.333 0 00-.487.286c-.72.484-1.557.74-2.427.74-.87 0-1.711-.256-2.427-.74-.111-.074-.373-.222-.49-.289a10.78 10.78 0 00-.67-.265 4.926 4.926 0 00-1.247-.165c-1.069 0-1.879.259-2.407.76-.124.12-.252.289-.38.517l-.036.074-.03.06-.034.071c-.04.09-.088.205-.141.333l-.027.067c-.084.202-.189.44-.303.703-.76 1.751-2.175 5.008-2.138 7.724.004.316.152 1.163.276 1.556.185.599.605.794.78.85.158.055.45.105.665.125.148-.003.66-.114.881-.215.188-.084.373-.205.565-.366.09-.078.124-.115.396-.45l.115-.142c.07-.09.137-.181.208-.272.198-.259.417-.551.71-.83.863-.824 1.962-1.426 3.26-1.789a9.26 9.26 0 014.941 0c1.3.363 2.397.965 3.26 1.789.293.279.518.571.713.83l.208.269.111.138c.273.336.31.373.397.453.239.205.447.31.582.367.205.09.786.208.981.208.077 0 .32-.044.551-.118.178-.053.599-.248.784-.847zm-.797-10.537c.676 1.616 2.598 5.556 2.551 8.998-.007.497-.191 1.486-.34 1.963-.292.951-.974 1.563-1.724 1.808-.306.098-.72.192-1.018.192-.4 0-1.187-.158-1.59-.34a3.829 3.829 0 01-.941-.595c-.226-.191-.326-.326-.696-.783-.266-.322-.498-.675-.8-.964-.696-.663-1.583-1.14-2.635-1.432a7.649 7.649 0 00-2.068-.283c-.699 0-1.395.091-2.067.283-1.052.292-1.936.766-2.635 1.432-.303.289-.535.638-.797.964-.373.457-.47.592-.696.783a3.8 3.8 0 01-.924.595c-.373.168-1.089.343-1.513.343-.033 0-.067 0-.094-.003a5.024 5.024 0 01-1.018-.192C1.35 19.311.672 18.7.376 17.748.23 17.27.044 16.282.034 15.785c-.047-3.442 1.879-7.382 2.55-8.998.071-.169.132-.32.186-.434.047-.104.067-.138.08-.168l.068-.131c.185-.323.39-.625.658-.878.814-.776 1.974-1.17 3.436-1.17.605 0 1.14.085 1.633.216.293.077.942.363.952.37 0 0 .497.279.655.383a2.852 2.852 0 003.183 0c.158-.104.656-.383.656-.383.013-.007.662-.293.954-.37a6.179 6.179 0 011.634-.215c1.466 0 2.622.393 3.439 1.17.265.252.474.554.655.877l.07.13c.014.031.034.065.081.169.05.114.111.265.182.434z" fill="#5CB615" fill-rule="nonzero"/></svg>
